img/place_title.svg

<svg width="40" height="40" viewBox="0 0 40 40" fill="none" xmlns="http://www.w3.org/2000/svg">
<rect width="40" height="40" rx="20" fill="white"/>
<path d="M32.2146 18.055L30.8494 16.5236L31.0394 14.4895V14.4897C31.1001 13.7807 30.8997 13.0739 30.4745 12.4986C30.0495 11.9233 29.4283 11.5178 28.7246 11.3566L26.7066 10.9124L25.65 9.15875V9.15895C25.276 8.54777 24.6903 8.09071 24.001 7.87157C23.3116 7.65242 22.5649 7.68606 21.8988 7.96657L19.9994 8.7614L18.1001 7.96657C17.4341 7.68504 16.687 7.65079 15.9975 7.86994C15.3077 8.08929 14.7221 8.54719 14.3488 9.15894L13.2922 10.9126L11.2743 11.3568V11.3566C10.5706 11.5178 9.94939 11.9233 9.52437 12.4986C9.09917 13.0739 8.89876 13.7807 8.95944 14.4897L9.14947 16.5238L7.78421 18.0552V18.055C7.30788 18.5928 7.04541 19.2821 7.04541 19.9958C7.04541 20.7093 7.3079 21.3986 7.78421 21.9364L9.14947 23.4678L8.95944 25.5019C8.89879 26.2107 9.09917 26.9175 9.52437 27.4928C9.94936 28.0681 10.5706 28.4736 11.2743 28.6348L13.2922 29.079L14.3488 30.8327V30.8325C14.891 31.725 15.8689 32.2717 16.9249 32.2727C17.3296 32.2713 17.7295 32.1877 18.1001 32.0273L19.9994 31.2325L21.8988 32.0273C22.5647 32.3086 23.3118 32.3429 24.0014 32.1237C24.6912 31.9046 25.2768 31.4467 25.65 30.8349L26.7066 29.0813L28.7246 28.6371C29.4282 28.4759 30.0495 28.0706 30.4745 27.4953C30.8997 26.92 31.1001 26.2132 31.0394 25.5042L30.8494 23.4701L32.2146 21.9387C32.6916 21.4009 32.9545 20.711 32.9545 19.9969C32.9545 19.283 32.6916 18.5931 32.2146 18.0551V18.055ZM19.9993 28.9039C17.6002 28.9039 15.2995 27.9654 13.6028 26.2947C11.9065 24.6243 10.9534 22.3584 10.9534 19.9961C10.9534 17.6336 11.9065 15.3677 13.6028 13.697C15.2992 12.0264 17.6 11.0878 19.9993 11.0878C22.3986 11.0878 24.6991 12.0264 26.3958 13.697C28.092 15.3675 29.0451 17.6334 29.0451 19.9961C29.0416 22.3574 28.0875 24.6213 26.3919 26.2911C24.6962 27.9608 22.3976 28.9005 19.9996 28.9039H19.9993ZM19.9993 12.2569C17.9151 12.2569 15.9162 13.0722 14.4422 14.5237C12.9685 15.975 12.1404 17.9432 12.1404 19.9961C12.1404 22.0486 12.9685 24.0169 14.4422 25.4686C15.9159 26.9199 17.9148 27.7351 19.9993 27.7351C22.0837 27.7351 24.0824 26.9199 25.5563 25.4686C27.0301 24.0171 27.8581 22.0489 27.8581 19.9961C27.8556 17.9443 27.0267 15.9774 25.5537 14.5268C24.0804 13.0759 22.0829 12.2599 19.9998 12.2575L19.9993 12.2569ZM23.4181 18.2894L19.4532 22.8954V22.8952C19.3423 23.0279 19.1769 23.1052 19.0021 23.1056H18.9903C18.8077 23.1019 18.637 23.0157 18.5272 22.8717L16.5685 20.3349L16.5687 20.3351C16.3925 20.0795 16.4488 19.7331 16.6971 19.5444C16.9453 19.3556 17.2999 19.3896 17.5064 19.622L19.0259 21.586L22.5041 17.5413V17.541C22.7138 17.2925 23.0885 17.2585 23.3409 17.4652C23.5934 17.6717 23.628 18.0407 23.4181 18.2892L23.4181 18.2894Z" fill="#FC6733"/>
</svg>

<svg width="40" height="40" viewBox="0 0 40 40" fill="none" xmlns="http://www.w3.org/2000/svg"><rect width="40" height="40" rx="20" fill="#fff"/><path d="M32.215 18.055l-1.366-1.531.19-2.035a2.928 2.928 0 0 0-.565-1.99 3.01 3.01 0 0 0-1.75-1.142l-2.017-.445L25.65 9.16a2.994 2.994 0 0 0-1.649-1.287 3.045 3.045 0 0 0-2.102.095l-1.9.794-1.899-.794a3.04 3.04 0 0 0-2.103-.097 2.99 2.99 0 0 0-1.648 1.289l-1.057 1.754-2.018.444a3.01 3.01 0 0 0-1.75 1.142 2.928 2.928 0 0 0-.565 1.99l.19 2.035-1.365 1.531a2.926 2.926 0 0 0-.739 1.94c0 .714.263 1.404.74 1.941l1.364 1.532-.19 2.034c-.06.709.14 1.416.565 1.99a3.01 3.01 0 0 0 1.75 1.143l2.018.444 1.057 1.754a3.015 3.015 0 0 0 2.576 1.44 2.985 2.985 0 0 0 1.175-.246l1.9-.794 1.899.794a3.041 3.041 0 0 0 2.102.097 2.989 2.989 0 0 0 1.649-1.29l1.057-1.753 2.018-.444a3.01 3.01 0 0 0 1.75-1.142 2.928 2.928 0 0 0 .564-1.99l-.19-2.035 1.366-1.531c.477-.538.74-1.228.74-1.942s-.263-1.404-.74-1.942zM19.999 28.904c-2.399 0-4.7-.939-6.396-2.61a8.84 8.84 0 0 1-2.65-6.298 8.84 8.84 0 0 1 2.65-6.299 9.117 9.117 0 0 1 6.396-2.61c2.4 0 4.7.94 6.397 2.61a8.84 8.84 0 0 1 2.65 6.3 8.853 8.853 0 0 1-2.654 6.294A9.13 9.13 0 0 1 20 28.904zm0-16.647a7.921 7.921 0 0 0-5.557 2.267 7.68 7.68 0 0 0-2.302 5.472c0 2.053.829 4.02 2.302 5.473A7.92 7.92 0 0 0 20 27.735a7.92 7.92 0 0 0 5.557-2.266 7.68 7.68 0 0 0 2.302-5.473 7.689 7.689 0 0 0-2.304-5.47A7.93 7.93 0 0 0 20 12.259v-.001zm3.42 6.032l-3.966 4.606a.59.59 0 0 1-.45.21h-.013a.597.597 0 0 1-.463-.233l-1.959-2.537a.578.578 0 0 1 .13-.79.6.6 0 0 1 .808.077l1.52 1.964 3.478-4.045a.6.6 0 0 1 .837-.076.579.579 0 0 1 .077.824z" fill="#FC6733"/></svg>
